icons/glyphs/glyph-tic-tac-toe.svg

<?xml version="1.0" encoding="UTF-8" standalone="no"?><svg height="16" viewBox="0 0 4.2333332 4.2333332" width="16" xmlns="http://www.w3.org/2000/svg"><sodipodi:namedview/><metadata><rdf:RDF><cc:Work><dc:format>image/svg+xml</dc:format><dc:type/><dc:title/></cc:Work></rdf:RDF></metadata><path d="m .14565855-.00000005c-.080699 0-.1456585.06496-.1456585.1456586v1.03597405c0 .080699.06496.1456586.1456585.1456586h1.03597405c.080699 0 .1456586-.064959.1456586-.1456586v-1.03597405c0-.080699-.064959-.1456586-.1456586-.1456586zm2.90604185 0c-.080699 0-.1456585.06496-.1456585.1456586v1.03597405c0 .080699.064959.1456586.1456585.1456586h1.0359741c.080699 0 .1456586-.064959.1456586-.1456586v-1.03597405c0-.080699-.06496-.1456586-.1456586-.1456586zm-.4131582.0004895c-.010033-.0007135-.020078-.0005144-.030136.0008129-.3365651 0-.6731614-.0000001-1.0097264 0-.08802-.00301-.157021.083302-.1456585.1681797.0004977.3427884-.00109.6856019.000647 1.02835895.00584.084271.09079.1413498.1712582.1307525.341537-.0004953.6831267.0009332 1.0246325-.0008105.084271-.00584.1413497-.090628.1307525-.1710961-.0004953-.34153705.000933-.68312675-.0008105-1.02463255-.00511-.073737-.070726-.12659-.1409599-.1315625zm-.8243723.2508113c.1007716.1007849.2016677.2014451.3024967.3021726.1008288-.1007275.201725-.2013877.3024966-.3021726l.1114717.1114717c-.1007716.1007848-.2016677.2014452-.3024966.3021727.1008289.1007275.2017251.2013876.3024966.3021726l-.1114717.11147165c-.1007716-.10078485-.2016677-.20144505-.3024966-.30217255-.100829.1007276-.2017251.2013877-.3024967.30217255l-.1114718-.11147165c.1007716-.1007849.2016678-.2014451.3024967-.3021726-.1008289-.1007275-.2017251-.2013878-.3024967-.3021727zm.8243723 1.20091335c-.010033-.0007101-.020078-.0005143-.030136.0008105-.3365651 0-.6731614-.0000001-1.0097264 0-.08802-.00301-.157021.083301-.1456585.1681797.0004977.3427884-.00109.6856019.000647 1.0283591.00584.084271.09079.1413497.1712582.1307524.341537-.0004977.6831267.0009333 1.0246325-.0008129.084271-.00584.1413497-.090628.1307525-.1710962-.0004953-.3415371.000933-.6831267-.0008105-1.0246325-.00511-.073737-.070726-.12659-.1409599-.1315626zm-2.49029125.00211c-.080699 0-.1456585.06496-.1456585.1456586v1.0359707c0 .080699.06496.1456587.1456585.1456585h1.03597415c.080699 0 .1456586-.064959.1456586-.1456585v-1.0359778c0-.080699-.06496-.1456585-.1456586-.1456585zm2.90344945 0c-.080699 0-.1456585.06496-.1456585.1456586v1.0359707c0 .080699.064959.1456587.1456585.1456585h1.0359741c.080699 0 .1456586-.064959.1456586-.1456585v-1.0359778c0-.080699-.06496-.1456585-.1456586-.1456585zm-1.2375305.2486981c.1007716.1007848.2016677.2014451.3024967.3021726.1008288-.1007275.201725-.2013878.3024966-.3021726l.1114717.1114717c-.1007716.1007847-.2016677.2014451-.3024966.3021726.1008289.1007275.2017251.2013877.3024966.3021726l-.1114717.1114718c-.1007716-.1007849-.2016677-.2014452-.3024966-.3021726-.100829.1007275-.2017251.2013876-.3024967.3021726l-.1114718-.1114718c.1007716-.1007849.2016678-.2014451.3024967-.3021726-.1008289-.1007275-.2017251-.2013878-.3024967-.3021726zm-1.66591895 1.2030196c-.080699 0-.1456585.06496-.1456585.1456586v1.0359738c0 .0807.06496.145659.1456585.145659h1.03597405c.080699 0 .1456586-.06496.1456586-.145659v-1.0359738c0-.080699-.06496-.1456585-.1456586-.1456586zm1.45172475 0c-.080699 0-.1456585.06496-.1456585.1456586v1.0359738c0 .0807.064959.145659.1456585.145659h1.0359741c.080699 0 .1456585-.06496.1456585-.145659v-1.0359738c0-.080699-.06496-.1456585-.1456585-.1456586zm1.4517247 0c-.080699 0-.1456585.06496-.1456585.1456586v1.0359738c0 .0807.064959.145659.1456585.145659h1.0359741c.080699 0 .1456586-.06496.1456586-.145659v-1.0359738c0-.080699-.06496-.1456586-.1456586-.1456586zm-2.37979155.1573242c.2739575 0 .49789615.2239385.49789615.4978962.0000001.2739575-.22393865.497896-.49789615.497896-.2739576 0-.4972481-.2239385-.4972481-.497896 0-.2739577.2232905-.4978962.4972481-.4978962zm1.45172465 0c .2739576 0 .4978962.2239385.4978962.4978962.0000001.2739575-.2239386.497896-.4978962.497896-.2739575 0-.4972481-.2239385-.4972481-.497896 0-.2739577.2232906-.4978962.4972481-.4978962zm-1.45172465.1574862c-.1887756 0-.339924.1516343-.339924.34041 0 .1887756.1511484.339924.339924.339924s.34040995-.1511484.34040995-.339924c0-.1887757-.15163435-.34041-.34040995-.34041zm1.45172465 0c-.1887755 0-.3399239.1516343-.3399239.34041 0 .1887756.1511484.339924.3399239.339924.1887756 0 .34041-.1511484.34041-.339924 0-.1887757-.1516344-.34041-.34041-.34041z" fill="#d0d0d0"/></svg>

<?xml version="1.0" encoding="UTF-8" standalone="no"?>
<!-- Created with Inkscape (http://www.inkscape.org/) -->

<svg
   xmlns:dc="http://purl.org/dc/elements/1.1/"
   xmlns:cc="http://creativecommons.org/ns#"
   xmlns:rdf="http://www.w3.org/1999/02/22-rdf-syntax-ns#"
   xmlns:svg="http://www.w3.org/2000/svg"
   xmlns="http://www.w3.org/2000/svg"
   xmlns:sodipodi="http://sodipodi.sourceforge.net/DTD/sodipodi-0.dtd"
   xmlns:inkscape="http://www.inkscape.org/namespaces/inkscape"
   width="16"
   height="16"
   viewBox="0 0 4.2333332 4.2333332"
   version="1.1"
   id="svg8"
   inkscape:version="0.92+devel (f96dc7e339, 2017-07-28, custom)"
   sodipodi:docname="glyph-tic-tac-toe.svg">
  <defs
     id="defs2" />
  <sodipodi:namedview
     id="base"
     pagecolor="#002466"
     bordercolor="#ffffff"
     borderopacity="0.38039216"
     inkscape:pageopacity="1"
     inkscape:pageshadow="2"
     inkscape:zoom="6.4375"
     inkscape:cx="10.094581"
     inkscape:cy="7.9162778"
     inkscape:document-units="px"
     inkscape:current-layer="svg8"
     inkscape:document-rotation="0"
     showgrid="false"
     inkscape:showpageshadow="false"
     borderlayer="true"
     inkscape:window-width="1920"
     inkscape:window-height="1051"
     inkscape:window-x="0"
     inkscape:window-y="0"
     inkscape:window-maximized="1"
     units="px"
     inkscape:snap-page="true"
     inkscape:snap-bbox="true"
     inkscape:bbox-nodes="true" />
  <metadata
     id="metadata5">
    <rdf:RDF>
      <cc:Work
         rdf:about="">
        <dc:format>image/svg+xml</dc:format>
        <dc:type
           rdf:resource="http://purl.org/dc/dcmitype/StillImage" />
        <dc:title></dc:title>
      </cc:Work>
    </rdf:RDF>
  </metadata>
  <path
     style="font-variation-settings:normal;vector-effect:none;fill:#d0d0d0;stroke:none;stroke-width:0.50270832;stroke-linecap:square;stroke-miterlimit:4;stroke-dasharray:none;stroke-opacity:1"
     d="M 0.14565855,-5.0000001e-8 C 0.06495955,-5.0000001e-8 4.9999999e-8,0.06495995 4.9999999e-8,0.14565855 V 1.1816326 c 0,0.080699 0.06496,0.1456586 0.145658500000001,0.1456586 H 1.1816326 c 0.080699,0 0.1456586,-0.064959 0.1456586,-0.1456586 V 0.14565855 C 1.3272912,0.06495955 1.2623322,-5.0000001e-8 1.1816326,-5.0000001e-8 Z m 2.90604185,0 c -0.080699,0 -0.1456585,0.06496 -0.1456585,0.145658600000001 V 1.1816326 c 0,0.080699 0.064959,0.1456586 0.1456585,0.1456586 h 1.0359741 c 0.080699,0 0.1456586,-0.064959 0.1456586,-0.1456586 V 0.14565855 C 4.2333331,0.06495955 4.1683731,-5.0000001e-8 4.0876745,-5.0000001e-8 Z M 2.6385422,4.8945e-4 c -0.010033,-7.135e-4 -0.020078,-5.144e-4 -0.030136,8.129e-4 -0.3365651,0 -0.6731614,-1e-7 -1.0097264,0 -0.08802,-0.00301 -0.157021,0.083302 -0.1456585,0.1681797 4.977e-4,0.3427884 -0.00109,0.6856019 6.47e-4,1.02835895 0.00584,0.084271 0.09079,0.1413498 0.1712582,0.1307525 C 1.9664635,1.3280982 2.3080532,1.3295267 2.649559,1.327783 2.73383,1.321943 2.7909087,1.237155 2.7803115,1.1566869 2.7798162,0.81514985 2.7812445,0.47356015 2.779501,0.13205435 2.774391,0.05831735 2.708775,0.00546435 2.6385411,4.9185e-4 Z m -0.8243723,0.2508113 c 0.1007716,0.1007849 0.2016677,0.2014451 0.3024967,0.3021726 0.1008288,-0.1007275 0.201725,-0.2013877 0.3024966,-0.3021726 l 0.1114717,0.1114717 c -0.1007716,0.1007848 -0.2016677,0.2014452 -0.3024966,0.3021727 0.1008289,0.1007275 0.2017251,0.2013876 0.3024966,0.3021726 L 2.4191632,1.0785894 C 2.3183916,0.97780455 2.2174955,0.87714435 2.1166666,0.77641685 2.0158376,0.87714445 1.9149415,0.97780455 1.8141699,1.0785894 L 1.7026981,0.96711775 C 1.8034697,0.86633285 1.9043659,0.76567265 2.0051948,0.66494515 1.9043659,0.56421765 1.8034697,0.46355735 1.7026981,0.36277245 Z M 2.6385422,1.4522141 c -0.010033,-7.101e-4 -0.020078,-5.143e-4 -0.030136,8.105e-4 -0.3365651,0 -0.6731614,-1e-7 -1.0097264,0 -0.08802,-0.00301 -0.157021,0.083301 -0.1456585,0.1681797 4.977e-4,0.3427884 -0.00109,0.6856019 6.47e-4,1.0283591 0.00584,0.084271 0.09079,0.1413497 0.1712582,0.1307524 0.341537,-4.977e-4 0.6831267,9.333e-4 1.0246325,-8.129e-4 C 2.73383,2.7736629 2.7909087,2.6888749 2.7803115,2.6084067 2.7798162,2.2668696 2.7812445,1.92528 2.779501,1.5837742 2.774391,1.5100372 2.708775,1.4571842 2.6385411,1.4522116 Z m -2.49029125,0.00211 c -0.080699,0 -0.1456585,0.06496 -0.1456585,0.1456586 v 1.0359707 c 0,0.080699 0.06496,0.1456587 0.1456585,0.1456585 H 1.1842251 c 0.080699,0 0.1456586,-0.064959 0.1456586,-0.1456585 V 1.5999756 c 0,-0.080699 -0.06496,-0.1456585 -0.1456586,-0.1456585 z m 2.90344945,0 c -0.080699,0 -0.1456585,0.06496 -0.1456585,0.1456586 v 1.0359707 c 0,0.080699 0.064959,0.1456587 0.1456585,0.1456585 h 1.0359741 c 0.080699,0 0.1456586,-0.064959 0.1456586,-0.1456585 V 1.5999756 c 0,-0.080699 -0.06496,-0.1456585 -0.1456586,-0.1456585 z M 1.8141699,1.7030222 C 1.9149415,1.803807 2.0158376,1.9044673 2.1166666,2.0051948 2.2174954,1.9044673 2.3183916,1.803807 2.4191632,1.7030222 L 2.5306349,1.8144939 C 2.4298633,1.9152786 2.3289672,2.015939 2.2281383,2.1166665 2.3289672,2.217394 2.4298634,2.3180542 2.5306349,2.4188391 L 2.4191632,2.5303109 C 2.3183916,2.429526 2.2174955,2.3288657 2.1166666,2.2281383 2.0158376,2.3288658 1.9149415,2.4295259 1.8141699,2.5303109 L 1.7026981,2.4188391 C 1.8034697,2.3180542 1.9043659,2.217394 2.0051948,2.1166665 1.9043659,2.015939 1.8034697,1.9152787 1.7026981,1.8144939 Z M 0.14825095,2.9060418 c -0.080699,0 -0.1456585,0.06496 -0.1456585,0.1456586 v 1.0359738 c 0,0.0807 0.06496,0.145659 0.1456585,0.145659 H 1.184225 c 0.080699,0 0.1456586,-0.06496 0.1456586,-0.145659 V 3.0517004 c 0,-0.080699 -0.06496,-0.1456585 -0.1456586,-0.1456586 z m 1.45172475,0 c -0.080699,0 -0.1456585,0.06496 -0.1456585,0.1456586 v 1.0359738 c 0,0.0807 0.064959,0.145659 0.1456585,0.145659 h 1.0359741 c 0.080699,0 0.1456585,-0.06496 0.1456585,-0.145659 V 3.0517004 c 0,-0.080699 -0.06496,-0.1456585 -0.1456585,-0.1456586 z m 1.4517247,0 c -0.080699,0 -0.1456585,0.06496 -0.1456585,0.1456586 v 1.0359738 c 0,0.0807 0.064959,0.145659 0.1456585,0.145659 h 1.0359741 c 0.080699,0 0.1456586,-0.06496 0.1456586,-0.145659 V 3.0517004 c 0,-0.080699 -0.06496,-0.1456586 -0.1456586,-0.1456586 z M 0.67190885,3.063366 c 0.2739575,0 0.49789615,0.2239385 0.49789615,0.4978962 1e-7,0.2739575 -0.22393865,0.497896 -0.49789615,0.497896 -0.2739576,0 -0.4972481,-0.2239385 -0.4972481,-0.497896 0,-0.2739577 0.2232905,-0.4978962 0.4972481,-0.4978962 z m 1.45172465,0 c 0.2739576,0 0.4978962,0.2239385 0.4978962,0.4978962 10e-8,0.2739575 -0.2239386,0.497896 -0.4978962,0.497896 -0.2739575,0 -0.4972481,-0.2239385 -0.4972481,-0.497896 0,-0.2739577 0.2232906,-0.4978962 0.4972481,-0.4978962 z M 0.67190885,3.2208522 c -0.1887756,0 -0.339924,0.1516343 -0.339924,0.34041 0,0.1887756 0.1511484,0.339924 0.339924,0.339924 0.1887756,0 0.34040995,-0.1511484 0.34040995,-0.339924 0,-0.1887757 -0.15163435,-0.34041 -0.34040995,-0.34041 z m 1.45172465,0 c -0.1887755,0 -0.3399239,0.1516343 -0.3399239,0.34041 0,0.1887756 0.1511484,0.339924 0.3399239,0.339924 0.1887756,0 0.34041,-0.1511484 0.34041,-0.339924 0,-0.1887757 -0.1516344,-0.34041 -0.34041,-0.34041 z"
     id="path855"
     inkscape:label="#"
     inkscape:connector-curvature="0" />
</svg>
